Adwaita++-Dark/actions/22/fcitx-sunpinyin.svg

<svg height="22" width="22" xmlns="http://www.w3.org/2000/svg">
  <path d="m8 0a8 8 0 0 0 -8 8 8 8 0 0 0 2 5.277v-.277h2v-3.9395l-1.7773.8887-.4454-.8984 2.2227-1.1113v-2.9395h-2v-1h2v-2h1v2h1v1h-1v2.4395l.7773-.3887.4454.8984-.1055.0508h1.8828v-3h-1v-1h1.375l-1.2754-1.6992.8008-.6016 1.5 2-.3984.3008h1.996l-.398-.3008 1.5-2 .8.6016-1.275 1.6992h2.375v1h-2v3h2v1h-2v5h-1v-5h-2.041c-.096 1.12-.4768 2.031-.9258 2.811-.621 1.07-1.6914 2.054-1.6914 2.054l-.6836-.728s1.0125-.966 1.5098-1.826c.401-.7.7039-1.411.7929-2.311h-1.9609v-.9395l-1 .5v5.4395h-2.2812a8 8 0 0 0 5.2812 2 8 8 0 0 0 8-8 8 8 0 0 0 -8-8zm1 5v3h2v-3z" fill="#e6ddff" transform="translate(3 3)"/>
</svg>

<svg xmlns="http://www.w3.org/2000/svg" width="22" height="22" version="1.1">
 <defs>
  <style id="current-color-scheme" type="text/css">
   .ColorScheme-Text { color:#E6DDFF; } .ColorScheme-Highlight { color:#4285f4; }
  </style>
 </defs>
 <g transform="matrix(1,0,0,1,3,3)">
  <path class="ColorScheme-Text" d="M 8 0 A 8 8 0 0 0 0 8 A 8 8 0 0 0 2 13.277 L 2 13 L 4 13 L 4 9.0605 L 2.2227 9.9492 L 1.7773 9.0508 L 4 7.9395 L 4 5 L 2 5 L 2 4 L 4 4 L 4 2 L 5 2 L 5 4 L 6 4 L 6 5 L 5 5 L 5 7.4395 L 5.7773 7.0508 L 6.2227 7.9492 L 6.1172 8 L 8 8 L 8 5 L 7 5 L 7 4 L 8.375 4 L 7.0996 2.3008 L 7.9004 1.6992 L 9.4004 3.6992 L 9.002 4 L 10.998 4 L 10.6 3.6992 L 12.1 1.6992 L 12.9 2.3008 L 11.625 4 L 14 4 L 14 5 L 12 5 L 12 8 L 14 8 L 14 9 L 12 9 L 12 14 L 11 14 L 11 9 L 8.959 9 C 8.863 10.12 8.4822 11.031 8.0332 11.811 C 7.4122 12.881 6.3418 13.865 6.3418 13.865 L 5.6582 13.137 C 5.6582 13.137 6.6707 12.171 7.168 11.311 C 7.569 10.611 7.8719 9.9 7.9609 9 L 6 9 L 6 8.0605 L 5 8.5605 L 5 14 L 2.7188 14 A 8 8 0 0 0 8 16 A 8 8 0 0 0 16 8 A 8 8 0 0 0 8 0 z M 9 5 L 9 8 L 11 8 L 11 5 L 9 5 z" style="fill:currentColor"/>
 </g>
</svg>
